X: 3174
T: Bedford Cross
R: slide
M: 12/8
K: Dmajor
A3AGA B2A G2B|AGE G2E D2E G2E|
A3AGA B2A G2B|AGE G2E D3 D2B:|
d2A ABA B/c/BA G2B|AGE G2E D2E G2E|
d2A ABA B/c/BA G2B|AGE G2E D3 D3:|

